!!!COM: Bohuslav (Jan) Martinů
!!!OTL: [T528_Mau-w9p7-8h4m11-18]
**kern	**kern	**dynam	**kern	**dynam	**kern	**dynam	**kern	**dynam	**kern	**dynam	**kern	**dynam	**kern	**dynam	**kern	**dynam	**kern	**dynam
*grp:A	*grp:A	*grp:A	*grp:A	*grp:A	*grp:A	*grp:A	*grp:B	*grp:B	*grp:B	*grp:B	*grp:B	*grp:B	*grp:A	*grp:A	*grp:B	*grp:B	*grp:A	*grp:A
*part9	*part9	*part9	*part8	*part8	*part7	*part7	*part6	*part6	*part5	*part5	*part4	*part4	*part3	*part 3	*part2	*part2	*part1	*part1
*staff10	*staff9	*staff9	*staff8	*staff8	*staff7	*staff7	*staff6	*staff6	*staff5	*staff5	*staff4	*staff4	*staff3	*staff3	*staff2	*staff2	*staff1	*
*I"Piano	*I"Piano	*I"Piano	*I"Violoncello solo	*I"Violoncello solo	*I"Trumpet in Bb	*I"Trumpet in Bb	*I"Horn in F	*I"Horn in F	*I"Bassoon	*I"Bassoon	*I"Clarinet in Bb 1.	*I"Clarinet in Bb 1.	*I"Oboe 2.	*	*I"Oboe 1.	*I"Oboe 1. 2.	*I"Piccolo	*
*I'Pno.	*	*	*I'Vc. solo	*	*I'Tpt.	*	*I'Hn.	*	*I'Bsn.	*	*I'1. Cl.	*	*I'Ob. 2.	*	*I'Ob. 1.	*	*I'Picc.	*
*clefG2	*clefG2	*	*clefG2	*	*clefG2	*	*clefG2	*	*clefF4	*	*clefG2	*	*clefG2	*	*clefG2	*	*clefG2	*
*	*	*	*	*	*ITrd1c2	*	*ITrd4c7	*	*	*	*ITrd1c2	*	*	*	*	*	*ITrd-7c-12	*
*k[]	*k[]	*	*k[]	*	*k[]	*	*k[b-]	*	*k[]	*	*k[]	*	*k[]	*	*k[]	*	*k[]	*
*C:	*C:	*	*C:	*	*C:	*	*F:	*	*C:	*	*C:	*	*C:	*	*C:	*	*C:	*
*M3/4	*M3/4	*	*M3/4	*	*M3/4	*	*M3/4	*	*M3/4	*	*M3/4	*	*M3/4	*	*M3/4	*	*M3/4	*
*	*8va	*	*	*	*	*	*	*	*	*	*	*	*	*	*	*	*	*
=1	=1	=1	=1	=1	=1	=1	=1	=1	=1	=1	=1	=1	=1	=1	=1	=1	=1	=1
!	!	!LO:DY:ed=brack	!	!LO:DY:ed=brack	!	!	!	!	!	!LO:DY:ed=brack	!LO:TX:a:t=1.	!LO:DY:ed=brack	!	!	!LO:TX:a:t=1.	!LO:DY:ed=brack	!	!
8.ryy	8.ryy	4ryy	4ryy	4ryy	4%3ryy	.	4%3r	.	8BB-X'L	pp	8B-'L	pp	4%3ryyyy	.	8b-X'L	pp	4%3ryy	.
.	.	.	.	.	.	.	.	.	8C'J	.	8c'J	.	.	.	8cc'J	.	.	.
16ryy	16ryy	.	.	.	.	.	.	.	.	.	.	.	.	.	.	.	.	.
8ryy	8ryy	.	8ryy	4ryy	.	.	.	.	8F^L	.	8f^L	.	.	.	8ff^L	.	.	.
8ryy	8ryy	.	16ryy	.	.	.	.	.	8C'J	.	8c'J	.	.	.	8cc'J	.	.	.
.	.	.	16ryy	.	.	.	.	.	.	.	.	.	.	.	.	.	.	.
12ryy	12ryy	.	4ryy	4ryy	.	.	.	.	8D^L	.	8d^L	.	.	.	8dd^L	.	.	.
12ryy	12ryy	.	.	.	.	.	.	.	.	.	.	.	.	.	.	.	.	.
.	.	.	.	.	.	.	.	.	8C'J	.	8c'J	.	.	.	8cc'J	.	.	.
12ryy	12ryy	.	.	.	.	.	.	.	.	.	.	.	.	.	.	.	.	.
=2	=2	=2	=2	=2	=2	=2	=2	=2	=2	=2	=2	=2	=2	=2	=2	=2	=2	=2
8.ryy	8.ryy	.	4ryy	.	4%3ryy	.	4r	.	8BB-X'L	.	8B-'L	.	4%3ryyyy	.	8b-X'L	.	4%3ryy	.
.	.	.	.	.	.	.	.	.	8AA^J	.	8A^J	.	.	.	8a^J	.	.	.
16ryy	16ryy	.	.	.	.	.	.	.	.	.	.	.	.	.	.	.	.	.
12ryy	12ryy	.	4ryy	4ryy	.	.	4r	.	8C'L	.	8d'L	.	.	.	8cc'L	.	.	.
12ryy	12ryy	.	.	.	.	.	.	.	.	.	.	.	.	.	.	.	.	.
.	.	.	.	.	.	.	.	.	8GG'J	.	8G'J	.	.	.	8g'J	.	.	.
12ryy	12ryy	.	.	.	.	.	.	.	.	.	.	.	.	.	.	.	.	.
8ryy	8ryy	.	4ryy	4ryy	.	.	8F^L	pp	8FF^L	.	8F^	.	.	.	8f^L	.	.	.
8ryy	8ryy	.	.	.	.	.	8GJ	.	8GG'J	.	8r'	.	.	.	8g'J	.	.	.
=3	=3	=3	=3	=3	=3	=3	=3	=3	=3	=3	=3	=3	=3	=3	=3	=3	=3	=3
12ryy	12ryy	.	8ryy	4ryy	4%3ryy	.	8A^L	.	8AA^L	.	4%3r	.	4%3ryyyy	.	8a^L	.	4%3ryy	.
12ryy	12ryy	.	.	.	.	.	.	.	.	.	.	.	.	.	.	.	.	.
.	.	.	8ryy	.	.	.	8c'J	.	8C'J	.	.	.	.	.	8cc'J	.	.	.
12ryy	12ryy	.	.	.	.	.	.	.	.	.	.	.	.	.	.	.	.	.
12ryy	12ryy	.	8ryy	4ryy	.	.	8B-'L	.	8BB-X'L	.	.	.	.	.	8b-X'L	.	.	.
12ryy	12ryy	.	.	.	.	.	.	.	.	.	.	.	.	.	.	.	.	.
.	.	.	16ryy	4ryy	.	.	8A^J	.	8AA^J	.	.	.	.	.	8a^J	.	.	.
12ryy	12ryy	.	.	.	.	.	.	.	.	.	.	.	.	.	.	.	.	.
.	.	.	16ryy	.	.	.	.	.	.	.	.	.	.	.	.	.	.	.
8.ryy	8.ryy	.	4ryy	4ryy	.	.	8F'L	.	8FF'L	.	.	.	.	.	8f'L	.	.	.
.	.	.	.	4ryy	.	.	8G'J	.	8GG'J	.	.	.	.	.	8g'J	.	.	.
16ryy	16ryy	.	.	.	.	.	.	.	.	.	.	.	.	.	.	.	.	.
=4	=4	=4	=4	=4	=4	=4	=4	=4	=4	=4	=4	=4	=4	=4	=4	=4	=4	=4
8.ryy	8.ryy	.	4ryy	.	4%3ryy	.	8F	.	8FF	.	4r	.	4%3ryyyy	.	8f	.	4%3ryy	.
.	.	.	.	.	.	.	8r	.	8r'	.	.	.	.	.	8r'	.	.	.
16ryy	16ryy	.	.	.	.	.	.	.	.	.	.	.	.	.	.	.	.	.
12ryy	12ryy	.	2ryy	.	.	.	[2E-X	.	8E-X^L	.	8e-^L	.	.	.	8ee-X^L	.	.	.
12ryy	12ryy	.	.	.	.	.	.	.	.	.	.	.	.	.	.	.	.	.
.	.	.	.	.	.	.	.	.	8F'J	.	8f'J	.	.	.	8ff'J	.	.	.
12ryy	12ryy	.	.	.	.	.	.	.	.	.	.	.	.	.	.	.	.	.
8ryy	8ryy	.	.	.	.	.	.	.	8A-X^L	.	8a-X^L	.	.	.	8aa-X^L	.	.	.
8ryy	8ryy	.	.	.	.	.	.	.	8G'J	.	8g'J	.	.	.	8gg'J	.	.	.
!!pagebreak:original
=5	=5	=5	=5	=5	=5	=5	=5	=5	=5	=5	=5	=5	=5	=5	=5	=5	=5	=5
*	*	*	*	*	*	*	*	*	*	*	*	*	*	*	*	*	*	*
!	!	!	!	!	!	!	!	!	!	!	!LO:TX:a:t=1.	!	!	!LO:DY:ed=brack	!	!	!	!
12ryy	12ryy	.	4ryy	4ryy	4%3ryy	.	2E-]	.	8F'L	.	8f'L	.	8.ryy	4ryy	8ff'L	.	4%3ryy	.
12ryy	12ryy	.	.	.	.	.	.	.	.	.	.	.	.	.	.	.	.	.
.	.	.	.	.	.	.	.	.	8E-X^J	.	8e-^J	.	.	.	8ee-X^J	.	.	.
12ryy	12ryy	.	.	.	.	.	.	.	.	.	.	.	.	.	.	.	.	.
.	.	.	.	.	.	.	.	.	.	.	.	.	16ryy	.	.	.	.	.
8.ryy	8.ryy	.	4ryy	.	.	.	.	.	8E-'L	.	8e-'L	.	12ryy	.	8ee-'L	.	.	.
.	.	.	.	.	.	.	.	.	.	.	.	.	12ryy	.	.	.	.	.
.	.	.	.	.	.	.	.	.	8FJ	.	8fJ	.	.	.	8ffJ	.	.	.
.	.	.	.	.	.	.	.	.	.	.	.	.	12ryy	.	.	.	.	.
16ryy	16ryy	.	.	.	.	.	.	.	.	.	.	.	.	.	.	.	.	.
12ryy	12ryy	.	8ryy	4ryy	.	.	4r	.	8C^L	.	8c^L	.	8ryy	.	8cc^L	.	.	.
12ryy	12ryy	.	.	.	.	.	.	.	.	.	.	.	.	.	.	.	.	.
.	.	.	16ryy	.	.	.	.	.	8D-X'J	.	8d-X'J	.	8ryy	.	8dd-X'J	.	.	.
12ryy	12ryy	.	.	.	.	.	.	.	.	.	.	.	.	.	.	.	.	.
.	.	.	16ryy	.	.	.	.	.	.	.	.	.	.	.	.	.	.	.
=6	=6	=6	=6	=6	=6	=6	=6	=6	=6	=6	=6	=6	=6	=6	=6	=6	=6	=6
12ryy	12ryy	.	4ryy	.	2.ryy	4ryy	4%3r	.	8E-X^L	.	8e-^L	.	4ryy	.	8ee-X^L	.	4%3ryy	.
12ryy	12ryy	.	.	.	.	.	.	.	.	.	.	.	.	.	.	.	.	.
.	.	.	.	.	.	.	.	.	8F'J	.	8f'J	.	.	.	8ff'J	.	.	.
12ryy	12ryy	.	.	.	.	.	.	.	.	.	.	.	.	.	.	.	.	.
8.ryy	8.ryy	.	4ryy	.	.	.	.	.	8A-X^L	.	8a-X^L	.	12ryy	.	8aa-X^L	.	.	.
.	.	.	.	.	.	.	.	.	.	.	.	.	12ryy	.	.	.	.	.
.	.	.	.	.	.	.	.	.	8G'J	.	8g'J	.	.	.	8gg'J	.	.	.
.	.	.	.	.	.	.	.	.	.	.	.	.	12ryy	.	.	.	.	.
16ryy	16ryy	.	.	.	.	.	.	.	.	.	.	.	.	.	.	.	.	.
8ryy	8ryy	.	4ryy	.	.	.	.	.	8F'L	.	8f'L	.	8.ryy	.	8ff'L	.	.	.
8ryy	8ryy	.	.	.	.	.	.	.	8E-^J	.	8e-^J	.	.	.	8ee-^J	.	.	.
.	.	.	.	.	.	.	.	.	.	.	.	.	16ryy	.	.	.	.	.
=7	=7	=7	=7	=7	=7	=7	=7	=7	=7	=7	=7	=7	=7	=7	=7	=7	=7	=7
12ryy	12ryy	.	4ryy	.	4ryy	.	4%3r	.	8E-X'L	.	8e-'L	.	12ryy	.	8ee-X'L	.	4ryy	.
12ryy	12ryy	.	.	.	.	.	.	.	.	.	.	.	12ryy	.	.	.	.	.
.	.	.	.	.	.	.	.	.	8F'J	.	8f'J	.	.	.	8ff'J	.	.	.
12ryy	12ryy	.	.	.	.	.	.	.	.	.	.	.	12ryy	.	.	.	.	.
8.ryy	8.ryy	.	8ryy	.	4ryy	.	.	.	8C^L	.	8c^L	.	8ryy	.	8cc^L	.	8.ryy	.
.	.	.	16ryy	.	.	.	.	.	8D-X'J	.	8d-X'J	.	8ryy	.	8dd-X'J	.	.	.
16ryy	16ryy	.	16ryy	.	.	.	.	.	.	.	.	.	.	.	.	.	16ryy	4ryy
12ryy	12ryy	.	4ryy	.	4ryy	.	.	.	8E-^L	.	8e-^L	.	4ryy	.	8ee-^L	.	12ryy	.
12ryy	12ryy	.	.	.	.	.	.	.	.	.	.	.	.	.	.	.	12ryy	.
.	.	.	.	.	.	.	.	.	8F'J	.	8f'J	.	.	.	8ff'J	.	.	.
12ryy	12ryy	.	.	.	.	.	.	.	.	.	.	.	.	.	.	.	12ryy	.
=8	=8	=8	=8	=8	=8	=8	=8	=8	=8	=8	=8	=8	=8	=8	=8	=8	=8	=8
8.ryy	8.ryy	.	8ryy	.	4%3ryy	.	4%3r	.	8A-X'L	.	8a-X'L	.	4ryy	.	8aa-X'L	.	8.ryy	.
.	.	.	8ryy	.	.	.	.	.	8G^J	.	8g^J	.	.	.	8gg^J	.	.	.
16ryy	16ryy	.	.	.	.	.	.	.	.	.	.	.	.	.	.	.	16ryy	.
12ryy	12ryy	.	4ryy	.	.	.	.	.	8F'L	.	8f'L	.	8.ryy	.	8ff'L	.	8ryy	.
12ryy	12ryy	.	.	.	.	.	.	.	.	.	.	.	.	.	.	.	.	.
.	.	.	.	.	.	.	.	.	8E-X'J	.	8e-'J	.	.	.	8ee-X'J	.	8ryy	.
12ryy	12ryy	.	.	.	.	.	.	.	.	.	.	.	.	.	.	.	.	.
.	.	.	.	.	.	.	.	.	.	.	.	.	16ryy	.	.	.	.	.
8ryy	8ryy	.	8ryy	.	.	.	.	.	8F^L	.	8f^L	.	8ryy	.	8ff^L	.	8.ryy	.
*	*X8va	*	*	*	*	*	*	*	*	*	*	*	*	*	*	*	*	*
8ryy	8ryy	.	16ryy	.	.	.	.	.	8C'J	.	8c'J	.	8ryy	.	8cc'J	.	.	.
.	.	.	16ryy	.	.	.	.	.	.	.	.	.	.	.	.	.	16ryy	.
=	=	=	=	=	=	=	=	=	=	=	=	=	=	=	=	=	=	=
*-	*-	*-	*-	*-	*-	*-	*-	*-	*-	*-	*-	*-	*-	*-	*-	*-	*-	*-
!!!system-decoration: [(s1,s2,s3,s4)][(s5,s6)][(s7)][({(s8,s9)})]
